src/components/Icon/assets/volume-up.svg

<svg width="24" height="24" viewBox="0 0 24 24" fill="none" xmlns="http://www.w3.org/2000/svg">
<g id="volume-up">
<path id="Combined Shape" fill-rule="evenodd" clip-rule="evenodd" d="M12.9601 1.99951L12.8286 2.00818C12.6119 2.03691 12.4093 2.13612 12.253 2.2924L7.54498 6.99891L2.96008 6.99951C2.4078 6.99951 1.96008 7.44723 1.96008 7.99951V15.9995L1.96681 16.1161C2.02458 16.6135 2.44725 16.9995 2.96008 16.9995L7.54498 16.9989L12.253 21.7066C12.4405 21.8942 12.6949 21.9995 12.9601 21.9995H13.9601C14.5124 21.9995 14.9601 21.5518 14.9601 20.9995V2.99951C14.9601 2.44723 14.5124 1.99951 13.9601 1.99951H12.9601ZM12.96 4.4129V19.5849L8.6672 15.2924L8.56812 15.2056C8.39458 15.0727 8.18111 14.9995 7.96009 14.9995L3.95999 14.9989V8.9989L7.96009 8.9995C8.22531 8.9995 8.47966 8.89415 8.6672 8.70661L12.96 4.4129ZM20.0603 5.70679C23.4676 9.11416 23.5345 14.5973 20.2607 18.0861L20.0603 18.293L18.6461 16.8788C21.2793 14.2455 21.3391 10.0132 18.8256 7.30727L18.6461 7.121L20.0603 5.70679ZM17.6438 8.12329C19.7249 10.2044 19.7827 13.5441 17.8172 15.6951L17.6438 15.8765L16.2296 14.4623C17.5405 13.1514 17.5873 11.0535 16.37 9.68632L16.2296 9.5375L17.6438 8.12329Z" fill="#242428"/>
</g>
</svg>

<svg xmlns="http://www.w3.org/2000/svg" width="24" height="24" fill="none" viewBox="0 0 24 24">
    <path fill="#65676A" fill-rule="evenodd" d="M12.96 2l-.131.008c-.217.029-.42.128-.576.284L7.545 7H2.96c-.552 0-1 .448-1 1v8l.007.117c.058.497.48.884.993.884l4.585-.001 4.708 4.708c.188.187.442.293.707.293h1c.552 0 1-.448 1-1V3c0-.553-.448-1-1-1h-1zm0 2.413v15.172l-4.293-4.293-.099-.086c-.173-.133-.387-.207-.608-.207h-4v-6h4c.265 0 .52-.105.707-.292l4.293-4.294zm7.1 1.294c3.408 3.407 3.475 8.89.2 12.38l-.2.206-1.414-1.414c2.633-2.634 2.693-6.866.18-9.572l-.18-.186 1.414-1.414zm-2.416 2.416c2.08 2.081 2.139 5.421.173 7.572l-.173.181-1.414-1.414c1.31-1.31 1.357-3.409.14-4.776l-.14-.149 1.414-1.414z" clip-rule="evenodd"/>
</svg>
